svg/u2195.svg

<svg viewBox="0 0 128 128" xmlns="http://www.w3.org/2000/svg">
  <g>
    <path d="M116.46,3.96h-104c-4.42,0-8,3.58-8,8v104c0,4.42,3.58,8,8,8h104c4.42,0,8-3.58,8-8v-104 C124.46,7.54,120.88,3.96,116.46,3.96z" fill="#427687"/>
    <path d="M110.16,3.96h-98.2c-4.13,0.03-7.47,3.37-7.5,7.5v97.9c-0.01,4.14,3.34,7.49,7.48,7.5 c0.01,0,0.01,0,0.02,0h98.1c4.14,0.01,7.49-3.34,7.5-7.48c0-0.01,0-0.01,0-0.02v-97.9c0.09-4.05-3.13-7.41-7.18-7.5 C110.31,3.96,110.23,3.96,110.16,3.96z" fill="#8CAFBF"/>
    <path d="M65.5,105.52l24-24c1.44-1.68,1.24-4.2-0.44-5.64c-0.71-0.61-1.62-0.95-2.56-0.96h-14 c-1.1,0-2-0.9-2-2v-23c0-1.1,0.9-2,2-2h14c2.21-0.02,3.98-1.83,3.96-4.04c-0.01-0.94-0.35-1.85-0.96-2.56l-24-24 c-1.46-1.66-3.99-1.82-5.65-0.35c-0.13,0.11-0.24,0.23-0.35,0.35l-24,24c-1.44,1.68-1.24,4.2,0.44,5.64 c0.71,0.61,1.62,0.95,2.56,0.96h14c1.1,0,2,0.9,2,2v23c0,1.1-0.9,2-2,2h-14c-2.21,0.02-3.98,1.83-3.96,4.04 c0.01,0.94,0.35,1.85,0.96,2.56l24,24c1.35,1.66,3.79,1.91,5.44,0.56C65.14,105.91,65.33,105.73,65.5,105.52z" fill="#FAFAFA"/>
  </g>
  <path d="M40.16,12.86c0-2.3-1.6-3-10.8-2.7c-7.7,0.3-11.5,1.2-13.8,4 s-2.9,8.5-3,15.3c0,4.8,0,9.3,2.5,9.3c3.4,0,3.4-7.9,6.2-12.3C26.66,17.76,40.16,15.86,40.16,12.86z" opacity="0.5" fill="#B4E1ED" enable-background="new "/>
</svg>

<svg viewBox="0 0 128 128" xmlns="http://www.w3.org/2000/svg">
  <defs/>
  <path d="M116.46,3.96 L12.46,3.96 C8.04,3.96 4.46,7.54 4.46,11.96 L4.46,115.96 C4.46,120.38 8.04,123.96 12.46,123.96 L116.46,123.96 C120.88,123.96 124.46,120.38 124.46,115.96 L124.46,11.96 C124.46,7.54 120.88,3.96 116.46,3.96 Z" fill="#427687"/>
  <path d="M110.16,3.96 L11.96,3.96 C7.83,3.99 4.49,7.33 4.46,11.46 L4.46,109.36 C4.45,113.5 7.8,116.85 11.94,116.86 C11.95,116.86 11.95,116.86 11.96,116.86 L110.06,116.86 C114.2,116.87 117.55,113.52 117.56,109.38 C117.56,109.37 117.56,109.37 117.56,109.36 L117.56,11.46 C117.65,7.41 114.43,4.05 110.38,3.96 C110.31,3.96 110.23,3.96 110.16,3.96 Z" fill="#8CAFBF"/>
  <path d="M65.5,105.52 L89.5,81.52 C90.94,79.84 90.74,77.32 89.06,75.88 C88.35,75.27 87.44,74.93 86.5,74.92 L72.5,74.92 C71.4,74.92 70.5,74.02 70.5,72.92 L70.5,49.92 C70.5,48.82 71.4,47.92 72.5,47.92 L86.5,47.92 C88.71,47.9 90.48,46.09 90.46,43.88 C90.45,42.94 90.11,42.03 89.5,41.32 L65.5,17.32 C64.04,15.66 61.51,15.5 59.85,16.97 C59.72,17.08 59.61,17.2 59.5,17.32 L35.5,41.32 C34.06,43 34.26,45.52 35.94,46.96 C36.65,47.57 37.56,47.91 38.5,47.92 L52.5,47.92 C53.6,47.92 54.5,48.82 54.5,49.92 L54.5,72.92 C54.5,74.02 53.6,74.92 52.5,74.92 L38.5,74.92 C36.29,74.94 34.52,76.75 34.54,78.96 C34.55,79.9 34.89,80.81 35.5,81.52 L59.5,105.52 C60.85,107.18 63.29,107.43 64.94,106.08 C65.14,105.91 65.33,105.73 65.5,105.52 Z" fill="#FAFAFA"/>
  <path d="M40.16,12.86 C40.16,10.56 38.56,9.86 29.36,10.16 C21.66,10.46 17.86,11.36 15.56,14.16 C13.26,16.96 12.66,22.66 12.56,29.46 C12.56,34.26 12.56,38.76 15.06,38.76 C18.46,38.76 18.46,30.86 21.26,26.46 C26.66,17.76 40.16,15.86 40.16,12.86 Z" fill="#B4E1ED" opacity="0.5"/>
</svg>
